src/Netnr.P/Netnr.ScriptService/wwwroot/icon/video.svg

<?xml version="1.0" standalone="no"?><!DOCTYPE svg PUBLIC "-//W3C//DTD SVG 1.1//EN" "http://www.w3.org/Graphics/SVG/1.1/DTD/svg11.dtd"><svg t="1566278657230" class="icon" viewBox="0 0 1261 1024" version="1.1" xmlns="http://www.w3.org/2000/svg" p-id="18283" xmlns:xlink="http://www.w3.org/1999/xlink" width="246.2890625" height="200"><defs><style type="text/css"></style></defs><path d="M265.20558 53.041116h730.788711v919.379345h-730.788711z" fill="#E3FCF1" p-id="18284"></path><path d="M1148.681984 1019.56812H129.514619c-55.987845 0-123.621161-52.569639-123.621162-117.869147v-777.936369c0-65.299507 67.633316-117.869147 123.621162-117.869147h1013.674662c62.635665 0 113.57871 49.009991 113.57871 109.241126v796.677563c0.023574 61.433399-46.464018 107.755974-108.086007 107.755974z m-1019.167365-966.527004c-33.404116 0-76.473502 34.299922-76.473503 70.721488v777.936369c0 36.421566 43.09296 70.721488 76.473503 70.721488h1019.143791c35.313596 0 60.961923-25.48331 60.961922-60.608315V115.134583c0-37.152355-34.347069-62.093467-66.431051-62.093467h-1013.674662z" fill="#34C892" p-id="18285"></path><path d="M1137.437267 29.467287h-165.016806v966.527004h170.485934c46.676182 0 88.826189-44.837423 88.826189-94.295318v-801.510198c0-49.457894-47.619135-70.721488-94.295317-70.721488z m47.147659 919.379345h-165.016806v-165.016806h165.016806v165.016806z m0-235.738294h-165.016806v-165.016805h165.016806v165.016805z m0-235.738293h-165.016806v-165.016806h165.016806v165.016806z m0-235.738294h-165.016806v-165.016806h165.016806v165.016806zM29.467287 100.188775v801.510198c0 49.457894 42.126433 94.295317 88.826189 94.295318h170.485934v-966.527004h-165.016806c-46.676182 0-94.295317 21.263594-94.295317 70.721488z m47.147658 683.641051h165.016806v165.016806h-165.016806v-165.016806z m0-235.738293h165.016806v165.016805h-165.016806v-165.016805z m0-235.738294h165.016806v165.016806h-165.016806v-165.016806z m0-235.738294h165.016806v165.016806h-165.016806v-165.016806z" fill="#34C892" p-id="18286"></path><path d="M757.026382 512.707215l-252.852893 146.912104V365.842258z" fill="#77E5B8" p-id="18287"></path><path d="M486.493117 690.336019V335.125558l305.752567 177.581657-305.752567 177.628804z m35.360744-293.800635v232.367236l199.976794-116.218979-199.976794-116.148257z" fill="#34C892" p-id="18288"></path></svg>

<svg viewBox="0 0 1261 1024" xmlns="http://www.w3.org/2000/svg" width="246.289" height="200"><path d="M265.206 53.041h730.788v919.38H265.206z" fill="#E3FCF1"/><path d="M1148.682 1019.568H129.515c-55.988 0-123.622-52.57-123.622-117.869V123.763c0-65.3 67.634-117.87 123.622-117.87h1013.674c62.636 0 113.579 49.01 113.579 109.242v796.677c.024 61.434-46.464 107.756-108.086 107.756zM129.515 53.041c-33.404 0-76.474 34.3-76.474 70.722v777.936c0 36.422 43.093 70.721 76.474 70.721h1019.143c35.314 0 60.962-25.483 60.962-60.608V115.135c0-37.153-34.347-62.094-66.43-62.094H129.514z" fill="#34C892"/><path d="M1137.437 29.467H972.42v966.527h170.486c46.677 0 88.827-44.837 88.827-94.295v-801.51c0-49.458-47.62-70.722-94.296-70.722zm47.148 919.38h-165.017V783.83h165.017v165.017zm0-235.739h-165.017V548.092h165.017v165.016zm0-235.738h-165.017V312.353h165.017V477.37zm0-235.738h-165.017V76.615h165.017v165.017zM29.467 100.189v801.51c0 49.458 42.127 94.295 88.826 94.295H288.78V29.467H123.763c-46.677 0-94.296 21.264-94.296 70.722zm47.148 683.64h165.017v165.018H76.615V783.83zm0-235.737h165.017v165.016H76.615V548.092zm0-235.739h165.017V477.37H76.615V312.353zm0-235.738h165.017v165.017H76.615V76.615z" fill="#34C892"/><path d="M757.026 512.707 504.173 659.62V365.842z" fill="#77E5B8"/><path d="M486.493 690.336v-355.21l305.753 177.581-305.753 177.629zm35.36-293.8v232.367l199.978-116.22-199.977-116.148z" fill="#34C892"/></svg>
